X:0691
M:6/8
L:1/8
Q:3/8=104
K:D
f/g/|afd dcd|ecA A2f/g/| afd     dcd|Ace         g2
e   |faf eae|dad cac   | Bgf     edc|ddd         d2:|

